icons/coupon-4-fill.svg

<svg xmlns="http://www.w3.org/2000/svg" width="24" height="24" fill="none"><g clip-path="url(#a)"><g><path fill="#121212" d="M10 21H3C2.73478 21 2.48043 20.8946 2.29289 20.7071C2.10536 20.5196 2 20.2652 2 20V4C2 3.73478 2.10536 3.48043 2.29289 3.29289C2.48043 3.10536 2.73478 3 3 3H10C10 3.53043 10.2107 4.03914 10.5858 4.41421C10.9609 4.78929 11.4696 5 12 5C12.5304 5 13.0391 4.78929 13.4142 4.41421C13.7893 4.03914 14 3.53043 14 3H21C21.2652 3 21.5196 3.10536 21.7071 3.29289C21.8946 3.48043 22 3.73478 22 4V20C22 20.2652 21.8946 20.5196 21.7071 20.7071C21.5196 20.8946 21.2652 21 21 21H14C14 20.4696 13.7893 19.9609 13.4142 19.5858C13.0391 19.2107 12.5304 19 12 19C11.4696 19 10.9609 19.2107 10.5858 19.5858C10.2107 19.9609 10 20.4696 10 21ZM6 8V16H8V8H6ZM16 8V16H18V8H16Z"/></g></g><defs><clipPath id="a"><rect width="24" height="24" fill="white"/></clipPath></defs></svg>

<svg width="24" height="24" fill="none" xmlns="http://www.w3.org/2000/svg"><g clip-path="url(#a)"><path d="M10 21H3a1 1 0 0 1-1-1V4a1 1 0 0 1 1-1h7a2 2 0 1 0 4 0h7a1 1 0 0 1 1 1v16a1 1 0 0 1-1 1h-7a2 2 0 0 0-4 0ZM6 8v8h2V8H6Zm10 0v8h2V8h-2Z" /></g><defs><clipPath id="a"><path fill="#fff" d="M0 0h24v24H0z"/></clipPath></defs></svg>
